X: 20484
M: C|
L: 1/8
K: G
gd |\
|: AB |\
c2cd cBAB | cBAG GFED | DEFG ABcd ecBA GFED |\
e2e2 efge | dBge dBGB | cedc BAGF | G2G2G2 :|


